sia-backend/flask-server/static/images/Sia_klein_Schwarz_Transp.svg

<?xml version="1.0" encoding="utf-8"?>
<!-- Generator: Adobe Illustrator 23.0.3, SVG Export Plug-In . SVG Version: 6.00 Build 0)  -->
<svg version="1.1" id="Sia_x5F_klein_x5F_Schwarz_x5F_Transp1_xA0_Bild_1_"
	 xmlns="http://www.w3.org/2000/svg" xmlns:xlink="http://www.w3.org/1999/xlink" x="0px" y="0px" viewBox="0 0 203 107"
	 style="enable-background:new 0 0 203 107;" xml:space="preserve">
<style type="text/css">
	.st0{fill:#FFFFFF;}
</style>
<g>
	<path class="st0" d="M75.7,95.8c-20.4,0-40.1,0-60.3,0c0-6.1,0-12,0-18.3c5.1,0,10.4,0,15.9,0c0.3,0.5,0.7,1.4,1.2,2.4
		c8.9,0,17.8,0,27.2,0c0-2.4,0-4.8,0-7.7c-14.5-5.8-29.3-11.7-44.4-17.8c0-11.7,0-23.6,0-36c20,0,40,0,60.3,0c0,6,0,11.9,0,18.1
		c-4.8,0-9.6,0-14.9,0c-0.5-0.5-1.3-1.5-2-2.3c-8.8,0-17.4,0-26.5,0c-0.2,2.9-0.3,5.4-0.5,8c14.8,5.9,29.3,11.7,43.8,17.5
		C75.7,71.9,75.7,83.6,75.7,95.8z"/>
	<path class="st0" d="M127.3,80.5c1.1-0.2,2.1-0.5,3.4-0.7c7.8-20.5,15.6-41,23.4-61.5c4.6,0,8.8,0,13.6,0
		c7.7,20.3,15.4,40.8,23.2,61.4c1.4,0.3,2.6,0.6,3.9,0.9c0,5,0,9.9,0,15c-22.4,0-44.8,0-67.4,0C127.3,90.6,127.3,85.6,127.3,80.5z
		 M174.2,78.9c-4.7-11.8-9-22.7-13.5-33.8c-4.4,11.3-8.7,22.4-13.2,33.8C156.5,78.9,164.6,78.9,174.2,78.9z"/>
	<path class="st0" d="M93.9,35.4c-0.9-0.7-1.9-1.5-2.6-2.1c0-5.1,0-9.9,0-14.9c7.8,0,15.4,0,23.3,0c0,4.9,0,9.6,0,14.9
		c-0.6,0.5-1.5,1.3-2.5,2.2c0,14.7,0,29.3,0,44.1c0.9,0.4,1.7,0.8,2.7,1.2c0,4.8,0,9.6,0,14.8c-7.7,0-15.4,0-23.4,0
		c0-4.9,0-9.8,0-14.9c0.8-0.3,1.6-0.7,2.6-1.1C93.9,65,93.9,50.5,93.9,35.4z"/>
</g>
</svg>

<svg xmlns="http://www.w3.org/2000/svg" viewBox="0 0 203 107" fill="#fff" xmlns:v="https://vecta.io/nano"><path d="M75.7 95.8H15.4V77.5h15.9c.3.5.7 1.4 1.2 2.4h27.2v-7.7L15.3 54.4v-36h60.3v18.1H60.7c-.5-.5-1.3-1.5-2-2.3H32.2l-.5 8 43.8 17.5.2 36.1zm51.6-15.3l3.4-.7 23.4-61.5h13.6l23.2 61.4 3.9.9v15h-67.4l-.1-15.1zm46.9-1.6l-13.5-33.8-13.2 33.8h26.7zM93.9 35.4l-2.6-2.1V18.4h23.3v14.9l-2.5 2.2v44.1l2.7 1.2v14.8H91.4V80.7l2.6-1.1-.1-44.2z"/></svg>
